icons/circle/48/steam_icon_219890.svg

<svg viewBox="0 0 48 48" xmlns="http://www.w3.org/2000/svg">
 <defs>
  <linearGradient id="bg" x2="0" y1="1" y2="47" gradientUnits="userSpaceOnUse">
   <stop style="stop-color:#444" offset="0"/>
   <stop style="stop-color:#3a3a3a" offset="1"/>
  </linearGradient>
 </defs>
 <path d="m36.31 5c5.859 4.062 9.688 10.831 9.688 18.5 0 12.426-10.07 22.5-22.5 22.5-7.669 0-14.438-3.828-18.5-9.688 1.037 1.822 2.306 3.499 3.781 4.969 4.085 3.712 9.514 5.969 15.469 5.969 12.703 0 23-10.298 23-23 0-5.954-2.256-11.384-5.969-15.469-1.469-1.475-3.147-2.744-4.969-3.781zm4.969 3.781c3.854 4.113 6.219 9.637 6.219 15.719 0 12.703-10.297 23-23 23-6.081 0-11.606-2.364-15.719-6.219 4.16 4.144 9.883 6.719 16.219 6.719 12.703 0 23-10.298 23-23 0-6.335-2.575-12.06-6.719-16.219z" style="opacity:.05"/>
 <path d="m41.28 8.781c3.712 4.085 5.969 9.514 5.969 15.469 0 12.703-10.297 23-23 23-5.954 0-11.384-2.256-15.469-5.969 4.113 3.854 9.637 6.219 15.719 6.219 12.703 0 23-10.298 23-23 0-6.081-2.364-11.606-6.219-15.719z" style="opacity:.1"/>
 <path d="m31.25 2.375c8.615 3.154 14.75 11.417 14.75 21.13 0 12.426-10.07 22.5-22.5 22.5-9.708 0-17.971-6.135-21.12-14.75a23 23 0 0 0 44.875-7 23 23 0 0 0-16-21.875z" style="opacity:.2"/>
 <circle cx="24" cy="24" r="23" style="fill:url(#bg)"/>
 <path d="m40.03 7.531c3.712 4.084 5.969 9.514 5.969 15.469 0 12.703-10.297 23-23 23-5.954 0-11.384-2.256-15.469-5.969 4.178 4.291 10.01 6.969 16.469 6.969 12.703 0 23-10.298 23-23 0-6.462-2.677-12.291-6.969-16.469z" style="opacity:.1"/>
 <path transform="translate(1 1)" d="m23 10-0.6582 1.1152a13.5 13.5 0 0 0-11.842 13.385 13.5 13.5 0 0 0 0.97461 5.0059l-1.4746 2.4941v2h4.4219a13.5 13.5 0 0 0 9.5781 4 13.5 13.5 0 0 0 9.584-4h4.416v-2l-1.4707-2.4883a13.5 13.5 0 0 0 0.9707-5.0117 13.5 13.5 0 0 0-0.64648-4.1094l-2.6738 1.5781a10.5 10.5 0 0 1 0.32031 2.5312 10.5 10.5 0 0 1-0.10547 1.3984l-6.5996-11.17a10.5 10.5 0 0 1 3.3301 2.0762l2.666-1.5762a13.5 13.5 0 0 0-8.1348-4.1172l-0.65625-1.1113h-2zm-2.7793 4.7051-6.6152 11.193a10.5 10.5 0 0 1-0.10547-1.3984 10.5 10.5 0 0 1 6.7207-9.7949zm3.7793 1.2949 8 14h-16l8-14zm0 5-3 2v3l3 2 3-2v-3l-3-2zm-4.4453 13h8.8906a10.5 10.5 0 0 1-4.4453 1 10.5 10.5 0 0 1-4.4453-1z" style="opacity:.1"/>
 <path d="m24 11a13.5 13.5 0 0 0-13.5 13.5 13.5 13.5 0 0 0 13.5 13.5 13.5 13.5 0 0 0 13.5-13.5 13.5 13.5 0 0 0-0.64648-4.1094l-2.6738 1.5781a10.5 10.5 0 0 1 0.32031 2.5312 10.5 10.5 0 0 1-10.5 10.5 10.5 10.5 0 0 1-10.5-10.5 10.5 10.5 0 0 1 10.5-10.5 10.5 10.5 0 0 1 7.125 2.8047l2.666-1.5762a13.5 13.5 0 0 0-9.791-4.2285z" style="fill:#ccc"/>
 <path d="m21 23v3l3 2 3-2v-3z" style="fill:#ccc"/>
 <path d="m21 23 3-2 3 2-3 2z" style="fill:#f9f9f9"/>
 <path d="m23 10-13 22v2h28v-2l-13-22zm1 6 8 14h-16z" style="fill:#ececec"/>
 <path d="m10.5 24.5a13.5 13.5 0 0 0 13.5 13.5v-3a10.5 10.5 0 0 1-10.5-10.5z" style="fill:#ccc"/>
</svg>

<svg xmlns="http://www.w3.org/2000/svg" viewBox="0 0 48 48">
 <defs>
  <linearGradient id="bg" x1="0" x2="0" y1="1" y2="47" gradientUnits="userSpaceOnUse" >
   <stop offset="0" style="stop-color:#444"/>
   <stop offset="1" style="stop-color:#3a3a3a"/>
  </linearGradient>
 </defs>
 <g>
  <path d="m 36.31 5 c 5.859 4.062 9.688 10.831 9.688 18.5 c 0 12.426 -10.07 22.5 -22.5 22.5 c -7.669 0 -14.438 -3.828 -18.5 -9.688 c 1.037 1.822 2.306 3.499 3.781 4.969 c 4.085 3.712 9.514 5.969 15.469 5.969 c 12.703 0 23 -10.298 23 -23 c 0 -5.954 -2.256 -11.384 -5.969 -15.469 c -1.469 -1.475 -3.147 -2.744 -4.969 -3.781 z m 4.969 3.781 c 3.854 4.113 6.219 9.637 6.219 15.719 c 0 12.703 -10.297 23 -23 23 c -6.081 0 -11.606 -2.364 -15.719 -6.219 c 4.16 4.144 9.883 6.719 16.219 6.719 c 12.703 0 23 -10.298 23 -23 c 0 -6.335 -2.575 -12.06 -6.719 -16.219 z" style="opacity:0.05"/>
  <path d="m 41.28 8.781 c 3.712 4.085 5.969 9.514 5.969 15.469 c 0 12.703 -10.297 23 -23 23 c -5.954 0 -11.384 -2.256 -15.469 -5.969 c 4.113 3.854 9.637 6.219 15.719 6.219 c 12.703 0 23 -10.298 23 -23 c 0 -6.081 -2.364 -11.606 -6.219 -15.719 z" style="opacity:0.1"/>
  <path d="m 31.25 2.375 c 8.615 3.154 14.75 11.417 14.75 21.13 c 0 12.426 -10.07 22.5 -22.5 22.5 c -9.708 0 -17.971 -6.135 -21.12 -14.75 a 23 23 0 0 0 44.875 -7 a 23 23 0 0 0 -16 -21.875 z" style="opacity:0.2"/>
  <circle cx="24" cy="24" r="23" style="fill:url(#bg)"/>
  <path d="m 40.03 7.531 c 3.712 4.084 5.969 9.514 5.969 15.469 0 12.703 -10.297 23 -23 23 c -5.954 0 -11.384 -2.256 -15.469 -5.969 4.178 4.291 10.01 6.969 16.469 6.969 c 12.703 0 23 -10.298 23 -23 0 -6.462 -2.677 -12.291 -6.969 -16.469 z" style="opacity:0.1"/>
 </g>
 <path d="M 23 10 L 22.341797 11.115234 A 13.5 13.5 0 0 0 10.5 24.5 A 13.5 13.5 0 0 0 11.474609 29.505859 L 10 32 L 10 34 L 14.421875 34 A 13.5 13.5 0 0 0 24 38 A 13.5 13.5 0 0 0 33.583984 34 L 38 34 L 38 32 L 36.529297 29.511719 A 13.5 13.5 0 0 0 37.5 24.5 A 13.5 13.5 0 0 0 36.853516 20.390625 L 34.179688 21.96875 A 10.5 10.5 0 0 1 34.5 24.5 A 10.5 10.5 0 0 1 34.394531 25.898438 L 27.794922 14.728516 A 10.5 10.5 0 0 1 31.125 16.804688 L 33.791016 15.228516 A 13.5 13.5 0 0 0 25.65625 11.111328 L 25 10 L 23 10 z M 20.220703 14.705078 L 13.605469 25.898438 A 10.5 10.5 0 0 1 13.5 24.5 A 10.5 10.5 0 0 1 20.220703 14.705078 z M 24 16 L 32 30 L 16 30 L 24 16 z M 24 21 L 21 23 L 21 26 L 24 28 L 27 26 L 27 23 L 24 21 z M 19.554688 34 L 28.445312 34 A 10.5 10.5 0 0 1 24 35 A 10.5 10.5 0 0 1 19.554688 34 z" style="opacity:0.1" transform="translate(1 1)"/>
 <g>
  <path d="M 24 11 A 13.5 13.5 0 0 0 10.5 24.5 A 13.5 13.5 0 0 0 24 38 A 13.5 13.5 0 0 0 37.5 24.5 A 13.5 13.5 0 0 0 36.853516 20.390625 L 34.179688 21.96875 A 10.5 10.5 0 0 1 34.5 24.5 A 10.5 10.5 0 0 1 24 35 A 10.5 10.5 0 0 1 13.5 24.5 A 10.5 10.5 0 0 1 24 14 A 10.5 10.5 0 0 1 31.125 16.804688 L 33.791016 15.228516 A 13.5 13.5 0 0 0 24 11 z" style="fill:#ccc"/>
  <path d="m 21 23 0 3 3 2 3 -2 0 -3 z" style="fill:#ccc"/>
  <path d="m 21 23 3 -2 3 2 -3 2 z" style="fill:#f9f9f9"/>
  <path d="m 23,10 -13,22 0,2 28,0 0,-2 -13,-22 z m 1,6 8,14 -16,0 z" style="fill:#ececec"/>
  <path d="m 10.5 24.5 a 13.5 13.5 0 0 0 13.5 13.5 v -3 a 10.5 10.5 0 0 1 -10.5 -10.5 z" style="fill:#ccc"/>
 </g>
</svg>
